X: 16814
T: Harry Lawson's
R: reel
M: 4/4
K: Amixolydian
egdB A2 Bd|e2 ed efga|gedB BABd|egdB BAAB|
egdB A2 Bd|e2 ed efga|gedB BABd|egdB BA A2|
aA A2 cdef|geeg ageg|aA A2 cded eged BA A2|
aA A2 cdef|g2 eg ageg|aA A2 cded eged BA A2|

